Simply-Red-Circles/scalable/apps/wxcas.svg

<svg xmlns="http://www.w3.org/2000/svg" width="48" height="48" viewBox="0 0 12.7 12.7"><path d="M6.34.07a6.29 6.29 0 0 0-6.29 6.3 6.29 6.29 0 0 0 6.3 6.28 6.29 6.29 0 0 0 6.28-6.29 6.29 6.29 0 0 0-.79-3.05l.7-1.21a.58.58 0 0 0-.5-.88h-.01c-.2 0-.39.11-.5.3l-.42.74A6.29 6.29 0 0 0 6.34.07zm-.01.94a5.4 5.4 0 0 1 4.28 2.11L8.26 7.2 6.44 4.05a.6.6 0 0 0-.08-.11l-.01-.02h-.01V3.9l-.02-.02a.58.58 0 0 0-.35-.14h-.05-.02-.02a.58.58 0 0 0-.34.14l-.02.02-.01.01-.02.02a.51.51 0 0 0-.08.11L3.6 7.2l-.67-1.15a.58.58 0 1 0-1 .59l1.16 2.01c.12.2.33.3.55.3a.58.58 0 0 0 .46-.3L5.93 5.5l1.81 3.15.06.08.01.02.02.01c.14.16.35.22.55.18h.03l.01-.01h.02l.01-.01a.59.59 0 0 0 .17-.09l.01-.01.02-.02c.05-.05.1-.1.12-.16l2.52-4.35a5.4 5.4 0 0 1 .44 2.14 5.4 5.4 0 0 1-5.4 5.4 5.4 5.4 0 0 1-5.41-5.4A5.4 5.4 0 0 1 6.32 1z" fill="#a02c2c"/></svg>

<?xml version="1.0" encoding="UTF-8" standalone="no"?>
<svg
   xmlns:dc="http://purl.org/dc/elements/1.1/"
   xmlns:cc="http://creativecommons.org/ns#"
   xmlns:rdf="http://www.w3.org/1999/02/22-rdf-syntax-ns#"
   xmlns:svg="http://www.w3.org/2000/svg"
   xmlns="http://www.w3.org/2000/svg"
   xmlns:sodipodi="http://sodipodi.sourceforge.net/DTD/sodipodi-0.dtd"
   xmlns:inkscape="http://www.inkscape.org/namespaces/inkscape"
   width="48"
   height="48"
   viewBox="0 0 12.7 12.7"
   version="1.1"
   id="svg4"
   sodipodi:docname="wxcas.svg"
   inkscape:version="0.92.4 (5da689c313, 2019-01-14)">
  <metadata
     id="metadata10">
    <rdf:RDF>
      <cc:Work
         rdf:about="">
        <dc:format>image/svg+xml</dc:format>
        <dc:type
           rdf:resource="http://purl.org/dc/dcmitype/StillImage" />
        <dc:title></dc:title>
      </cc:Work>
    </rdf:RDF>
  </metadata>
  <defs
     id="defs8" />
  <sodipodi:namedview
     pagecolor="#ffffff"
     bordercolor="#666666"
     borderopacity="1"
     objecttolerance="10"
     gridtolerance="10"
     guidetolerance="10"
     inkscape:pageopacity="0"
     inkscape:pageshadow="2"
     inkscape:window-width="1087"
     inkscape:window-height="480"
     id="namedview6"
     showgrid="false"
     inkscape:zoom="4.9166667"
     inkscape:cx="2.1355932"
     inkscape:cy="24"
     inkscape:window-x="0"
     inkscape:window-y="25"
     inkscape:window-maximized="0"
     inkscape:current-layer="svg4" />
  <path
     d="m 6.34,0.07 a 6.29,6.29 0 0 0 -6.29,6.3 6.29,6.29 0 0 0 6.3,6.28 6.29,6.29 0 0 0 6.28,-6.29 6.29,6.29 0 0 0 -0.79,-3.05 l 0.7,-1.21 a 0.58,0.58 0 0 0 -0.5,-0.88 h -0.01 c -0.2,0 -0.39,0.11 -0.5,0.3 L 11.11,2.26 A 6.29,6.29 0 0 0 6.34,0.07 Z M 6.33,1.01 a 5.4,5.4 0 0 1 4.28,2.11 L 8.26,7.2 6.44,4.05 A 0.6,0.6 0 0 0 6.36,3.94 L 6.35,3.92 H 6.34 V 3.9 L 6.32,3.88 A 0.58,0.58 0 0 0 5.97,3.74 H 5.92 5.9 5.88 A 0.58,0.58 0 0 0 5.54,3.88 L 5.52,3.9 5.51,3.91 5.49,3.93 A 0.51,0.51 0 0 0 5.41,4.04 L 3.6,7.2 2.93,6.05 a 0.58053854,0.58053854 0 1 0 -1,0.59 l 1.16,2.01 c 0.12,0.2 0.33,0.3 0.55,0.3 A 0.58,0.58 0 0 0 4.1,8.65 L 5.93,5.5 7.74,8.65 7.8,8.73 7.81,8.75 7.83,8.76 C 7.97,8.92 8.18,8.98 8.38,8.94 H 8.41 L 8.42,8.93 H 8.44 L 8.45,8.92 A 0.59,0.59 0 0 0 8.62,8.83 L 8.63,8.82 8.65,8.8 C 8.7,8.75 8.75,8.7 8.77,8.64 l 2.52,-4.35 a 5.4,5.4 0 0 1 0.44,2.14 5.4,5.4 0 0 1 -5.4,5.4 A 5.4,5.4 0 0 1 0.92,6.43 5.4,5.4 0 0 1 6.32,1 Z"
     id="path2"
     inkscape:connector-curvature="0"
     style="fill:#a02c2c" />
</svg>
